lib/healthicons/icons/solid/typography/I.svg

<svg fill="none" height="48" viewBox="0 0 48 48" width="48" xmlns="http://www.w3.org/2000/svg"><path clip-rule="evenodd" d="m14 12c0-1.1046.8954-2 2-2h16c1.1046 0 2 .8954 2 2s-.8954 2-2 2h-6v20h6c1.1046 0 2 .8954 2 2s-.8954 2-2 2h-16c-1.1046 0-2-.8954-2-2s.8954-2 2-2h6v-20h-6c-1.1046 0-2-.8954-2-2z" fill="#333" fill-rule="evenodd"/></svg>

<svg width="48" height="48" viewBox="0 0 48 48" fill="none" xmlns="http://www.w3.org/2000/svg">
<path fill-rule="evenodd" clip-rule="evenodd" d="M14 12C14 10.8954 14.8954 10 16 10L32 10C33.1046 10 34 10.8954 34 12C34 13.1046 33.1046 14 32 14H26L26 34H32C33.1046 34 34 34.8954 34 36C34 37.1046 33.1046 38 32 38H16C14.8954 38 14 37.1046 14 36C14 34.8954 14.8954 34 16 34H22L22 14L16 14C14.8954 14 14 13.1046 14 12Z" fill="#333333"/>
</svg>
